findly-builder/apps/searchassist/src/assets/images/icons/Configuration_white.svg

<?xml version="1.0" encoding="UTF-8"?>
<svg width="16px" height="16px" viewBox="0 0 16 16" version="1.1" xmlns="http://www.w3.org/2000/svg" xmlns:xlink="http://www.w3.org/1999/xlink">
    <title>Icon / 16x16 / Banking Bot / Assistant Configuration Copy 2</title>
    <g id="Page-1" stroke="none" stroke-width="1" fill="none" fill-rule="evenodd">
        <g id="icons" transform="translate(-8.000000, -69.000000)">
            <g id="Icon-/-16x16-/-Banking-Bot-/-Assistant-Configuration-Copy-2" transform="translate(8.000000, 69.000000)">
                <g id="Assistant-Configuration">
                    <rect id="assistant-configuration" fill-opacity="0" fill="#D8D8D8" x="0" y="0" width="16" height="16"></rect>
                    <path d="M11.3835421,9.63416802 L11.4234022,9.6649393 L12.1185055,10.2563354 L12.3010747,10.4154941 C12.4773915,10.5692021 12.528608,10.8195782 12.4319905,11.0282873 L12.4090157,11.0723225 L12.2813428,11.2911514 L11.6707108,12.3129197 L11.5458534,12.5275344 C11.4314713,12.7241435 11.2043695,12.8225273 10.9854625,12.7757052 L10.9387234,12.7634322 L10.6890712,12.6853576 L10.0515527,12.4721017 L9.94961418,12.5382178 C9.87327686,12.585956 9.79566106,12.630589 9.71675572,12.672022 L9.62393657,12.7182258 L9.49681566,13.3374186 L9.44853747,13.5797613 C9.40290959,13.8088002 9.21158917,13.9777416 8.98259293,13.9979646 L8.93632334,14 L7.20996203,14 C6.97601671,14 6.77271057,13.8448484 6.70848326,13.6237129 L6.69752431,13.5786324 L6.65068926,13.3406999 L6.52290372,12.7185522 L6.42952966,12.672022 C6.35062432,12.630589 6.27300851,12.585956 6.1966712,12.5382178 L6.09496119,12.4721017 L5.44728813,12.6885666 L5.20756197,12.7634322 C4.99010589,12.8313429 4.755815,12.7502256 4.62608051,12.5673815 L4.59992485,12.5266608 L4.47934756,12.3183748 L3.86161831,11.2855085 L3.73731586,11.0714483 C3.62017214,10.8697162 3.65174983,10.6169135 3.8094558,10.4503373 L3.84517224,10.4160122 L4.03256063,10.2522183 L4.72288318,9.6649393 C4.94258288,9.47803391 5.27220143,9.50461895 5.45910683,9.72431864 C5.63501779,9.93109483 5.62181612,10.2352386 5.43648922,10.426129 L5.39972749,10.4605423 L4.86009727,10.9196268 L5.2906512,11.6393928 L6.01829551,11.3963545 C6.16807586,11.3462741 6.33148095,11.3669017 6.46335112,11.4504375 L6.50607794,11.480602 C6.71659024,11.645583 6.93632902,11.7730196 7.16599375,11.860724 C7.31747115,11.9185702 7.43259069,12.0430545 7.47929295,12.1964626 L7.49121905,12.243315 L7.63796985,12.95521 L8.50919687,12.95521 L8.65500318,12.2436221 C8.68762639,12.0846877 8.79197537,11.9509005 8.93594441,11.8800525 L8.98029162,11.860724 C9.20995636,11.7730196 9.42969513,11.645583 9.64020744,11.480602 C9.76451233,11.3831829 9.92536987,11.3478053 10.0776204,11.3822691 L10.1279899,11.3963545 L10.8561891,11.6397192 L11.286743,10.9196268 L10.7465579,10.4605423 C10.5397817,10.2846313 10.504069,9.98230318 10.6564073,9.76417878 L10.6871785,9.72431864 C10.8630895,9.51754246 11.1654177,9.48182978 11.3835421,9.63416802 Z M9.29931916,9.62679452 C9.56563183,9.73760583 9.69169059,10.0433252 9.58087928,10.3096379 C9.32970916,10.9132747 8.73850323,11.3151826 8.07342015,11.3151826 C7.41068676,11.3151826 6.8211523,10.9161011 6.56847636,10.315649 C6.45659746,10.0497831 6.58142861,9.74356036 6.84729454,9.63168146 C7.09839015,9.52601805 7.38548298,9.63149416 7.51085635,9.86751093 L7.53126207,9.91049964 C7.62229067,10.1268175 7.83472599,10.2706242 8.07342015,10.2706242 C8.29584393,10.2706242 8.49543068,10.1457435 8.59524728,9.95381075 L8.6164758,9.90835464 C8.72728711,9.64204197 9.0330065,9.51598321 9.29931916,9.62679452 Z M8.07342015,2 C8.34584217,2 8.56954943,2.2085727 8.59356498,2.47474116 L8.59569937,2.52227922 L8.59569937,2.9430398 C8.59569937,2.98240513 8.59134424,3.02075326 8.58308952,3.05762867 L10.7501011,3.05736599 C11.3781709,3.05736599 11.8911581,3.55009289 11.9236005,4.1700844 L11.9252294,4.23249423 L11.9252294,7.36616953 C11.9252294,7.99423928 11.4325025,8.50722649 10.812511,8.53966888 L10.7501011,8.54129777 L5.39673916,8.54129777 C4.76866942,8.54129777 4.2556822,8.04857087 4.22323981,7.42857936 L4.22161092,7.36616953 L4.22161092,4.23249423 C4.22161092,3.60442449 4.71433782,3.09143727 5.33432933,3.05899488 L5.39673916,3.05736599 L7.56375077,3.05762867 C7.55885639,3.03576449 7.55533292,3.01338257 7.55327532,2.99057785 L7.55114093,2.9430398 L7.55114093,2.52227922 C7.55114093,2.23383237 7.7849733,2 8.07342015,2 Z M10.7501011,4.10192443 L5.39673916,4.10192443 C5.33364141,4.10192443 5.28099722,4.14668141 5.26882207,4.20617986 L5.26616936,4.23249423 L5.26616936,7.36616953 C5.26616936,7.42926728 5.31092634,7.48191148 5.37042479,7.49408662 L5.39673916,7.49673934 L10.7501011,7.49673934 C10.8131989,7.49673934 10.8658431,7.45198236 10.8780182,7.3924839 L10.8806709,7.36616953 L10.8806709,4.23249423 C10.8806709,4.16038252 10.8222128,4.10192443 10.7501011,4.10192443 Z M6.96357681,5.24441022 C7.27005159,5.24441022 7.51849848,5.49285711 7.51849848,5.79933188 C7.51849848,6.10580666 7.27005159,6.35425355 6.96357681,6.35425355 C6.65710204,6.35425355 6.40865515,6.10580666 6.40865515,5.79933188 C6.40865515,5.49285711 6.65710204,5.24441022 6.96357681,5.24441022 Z M9.18326349,5.24441022 C9.48973826,5.24441022 9.73818515,5.49285711 9.73818515,5.79933188 C9.73818515,6.10580666 9.48973826,6.35425355 9.18326349,6.35425355 C8.87678871,6.35425355 8.62834182,6.10580666 8.62834182,5.79933188 C8.62834182,5.49285711 8.87678871,5.24441022 9.18326349,5.24441022 Z" id="assistant-configuration" fill="#F2F3F5"></path>
                </g>
            </g>
        </g>
    </g>
</svg>

<svg width="16" height="16" xmlns="http://www.w3.org/2000/svg"><g fill="none" fill-rule="evenodd"><path d="M0 0h16v16H0z"/><path d="m11.384 9.634.04.03.695.592.182.16a.522.522 0 0 1 .131.612l-.023.044-.128.22-.61 1.02-.125.216a.522.522 0 0 1-.56.248l-.047-.013-.25-.078-.637-.213-.102.066a3.565 3.565 0 0 1-.233.134l-.093.046-.127.62-.048.242a.522.522 0 0 1-.466.418L8.936 14H7.21a.522.522 0 0 1-.502-.376l-.01-.045-.047-.238-.128-.622-.093-.047a3.565 3.565 0 0 1-.233-.134l-.102-.066-.648.217-.24.074a.522.522 0 0 1-.58-.196l-.027-.04-.12-.209-.618-1.032-.125-.215a.522.522 0 0 1 .072-.62l.036-.035.188-.164.69-.587a.522.522 0 0 1 .713.761l-.036.035-.54.459.43.72.728-.244a.52.52 0 0 1 .445.054l.043.03c.21.166.43.293.66.38a.522.522 0 0 1 .313.336l.012.047.147.712h.871l.146-.711a.522.522 0 0 1 .28-.364l.045-.02c.23-.087.45-.214.66-.38a.522.522 0 0 1 .438-.098l.05.014.728.244.43-.72-.54-.46a.522.522 0 0 1-.09-.696l.031-.04a.522.522 0 0 1 .697-.09Zm-2.085-.007c.267.11.393.416.282.683a1.633 1.633 0 0 1-3.013.006.522.522 0 0 1 .943-.448l.02.042a.588.588 0 0 0 1.064.044l.021-.046a.522.522 0 0 1 .683-.281ZM8.073 2c.273 0 .497.209.52.475l.003.047v.421a.54.54 0 0 1-.013.115h2.167c.628 0 1.141.492 1.174 1.112l.001.062v3.134c0 .628-.492 1.141-1.112 1.174l-.063.001H5.397A1.175 1.175 0 0 1 4.223 7.43l-.001-.063V4.232c0-.628.492-1.14 1.112-1.173l.063-.002h2.167a.521.521 0 0 1-.01-.066l-.003-.048v-.42c0-.29.234-.523.522-.523Zm2.677 2.102H5.397a.13.13 0 0 0-.128.104l-.003.026v3.134a.13.13 0 0 0 .104.128l.027.003h5.353a.13.13 0 0 0 .128-.105l.003-.026V4.232a.13.13 0 0 0-.13-.13ZM6.964 5.244a.555.555 0 1 1 0 1.11.555.555 0 0 1 0-1.11Zm2.22 0a.555.555 0 1 1 0 1.11.555.555 0 0 1 0-1.11Z" fill="#F2F3F5"/></g></svg>
